img/logo-wedding-card.svg

<svg xmlns="http://www.w3.org/2000/svg" width="790" height="659" fill="none"><path fill="#4A90E2" d="M237.268 358.414V119.318h-9.115v255.698a939.888 939.888 0 0 1 9.115-16.602ZM237.268 385.475a879.6 879.6 0 0 0-9.115 17.939v65.678c3.068-.533 6.106-1.074 9.115-1.623v-81.994ZM266.599 587.422h-6.544a22.757 22.757 0 0 1-16.113-6.691 22.88 22.88 0 0 1-6.674-16.155v-82.471c-3.039.636-6.078 1.258-9.115 1.866v79.463a24.02 24.02 0 0 1-7.008 16.962 23.892 23.892 0 0 1-16.918 7.026h-72.883v13.708a713.28 713.28 0 0 1 101.657-7.242c12.016.005 23.641.316 34.853.869a406.67 406.67 0 0 1-1.255-7.335ZM283.457 595.704a713.723 713.723 0 0 1 50.62 5.426v-13.708h-51.696a344.2 344.2 0 0 0 1.076 8.282ZM699.254 85.605h9.592V71.898A702.706 702.706 0 0 1 696.14 73.6c1.175 3.92 2.213 7.921 3.114 12.004ZM612.037 181.068c-3.044.889-6.083 1.767-9.115 2.636v98.774a195.537 195.537 0 0 0 9.115-6.616v-94.794ZM602.922 302.379V553.71h9.115V296.899a200.678 200.678 0 0 1-9.115 5.48ZM549.878 76.802a713.701 713.701 0 0 1-43.765-4.904v13.707h41.681a996.931 996.931 0 0 1 2.084-8.803ZM607.189 79.14a712.549 712.549 0 0 1-45.099-1.454 909.018 909.018 0 0 0-1.883 7.92h19.928c6.044 0 11.84 2.407 16.113 6.691a22.878 22.878 0 0 1 6.674 16.155v60.256c3.037-.82 6.075-1.648 9.115-2.485v-56.629a24.02 24.02 0 0 1 7.008-16.962 23.893 23.893 0 0 1 16.918-7.026h46.182a156.14 156.14 0 0 0-2.522-10.127 713.028 713.028 0 0 1-72.434 3.66Z"/><path fill="#4A90E2" d="M575.611 527.971C513.944 463.19 450.623 400 389.279 334.911 276.017 214.733 249.993 180.884 165.06 111.742 143.002 98.034 90.19 74.981 57.32 87.508c-3.721 1.227-6.422-4.587-2.195-5.967 57.677-22.846 124.482-18.003 168.579 24.192 37.48 36.998 376.631 383.526 407.886 415.986 35.772 37.151 82.299 67.283 132.101 67.077 71.286-10.017-17.563 37.668-85.572 9.315-3.458-1.442-5.792-2.273-9.821-4.044-51.259-22.529-84.936-57.954-92.687-66.096Z"/><path fill="#032136" d="M450.957 314.746c-2.449-1.016-3.152-3.676-1.653-3.9.485-.039.972.047 1.416.249 18.721 8.411 41.822 11.25 66.41 8.644 1.776-24.079 6.796-70.612 14.464-121.997-24.567 5.83-48.198 10.751-68.882 13.849-22.633 3.389-41.893 4.737-55.62 3.105-30.414-3.588-35.018-23.177-22.788-48.053 12.696-25.868 54.969-65.074 94.389-70.977a60.453 60.453 0 0 1 16.801-.366c23.873 2.878 36.265 30.519 41.893 66.24 5.393-31.687 11.812-63.681 19.046-92.264 9.665-44.156 30.255-65.368 53.038-68.78 44.816-6.71 97.569 55.291 88.514 144.676 21.6-7.229 39.177-13.702 50.248-18.585 3.164-1.396 4.233 1.67 1.647 2.825-11.521 4.952-29.952 11.86-52.385 19.674a225.775 225.775 0 0 1-9.566 42.759c-24.994 77.024-90.778 119.906-153.745 130.256-.843 5.657-1.52 10.368-2.249 13.703-1.331 6.498-4.84 10.71-8.288 11.227-3.597.538-7.027-2.943-7.254-11.665.009-1.999.049-5.845.464-11.285-23.823 1.571-46.646-1.464-65.9-9.335Zm21.682-112.63c18.436-2.761 38.858-6.587 60.068-11.3.429-3.29 1.031-6.453 1.61-9.766-2.438-43.112-12.397-79.106-38.375-82.744a60.08 60.08 0 0 0-17.445.155c-38.821 5.813-79.168 44.578-91.908 70.144-10.857 21.751-6.301 33.821 22.869 37.288 15.121 1.729 37.251.106 63.181-3.777Zm46.797 133.102c.242 7.799 1.754 9.723 3.53-.99.519-2.689 1.03-6.453 1.753-10.863-1.499.225-3.298.494-4.819.568a111.58 111.58 0 0 0-.464 11.285Zm2.04-16.13 2.721-.254 1.199-.179c4.049-27.338 9.954-76.154 9.412-120.933-7.69 51.234-12.605 97.445-14.531 121.546l1.199-.18Zm166.695-166.762c-42.153 14.301-96.402 30.721-147.396 43.273 2.318 44.36-1.984 92.628-5.853 121.168 58.218-12.405 119.632-54.786 143.994-126.798a226.886 226.886 0 0 0 9.255-37.643Zm.595-4.237c11.49-87.445-36.924-151.172-79.192-144.843-20.834 3.12-40.338 23.401-50.181 66.355-7.903 31.294-14.812 67.203-20.484 102.158.678 5.583 1.079 11.36 1.503 17.289 51.278-11.673 106.261-27.281 148.354-40.959ZM265.091 471.396c-18.197 4.033-37.384 8.24-56.769 11.746-2.176 6.486-4.549 12.622-6.725 18.056-5.934 14.901-22.747 16.304-19.978-3.155a110.246 110.246 0 0 1 2.572-10.694c-54.396 8.766-109.385 12.447-151.121 2.455-38.571-9.292-40.747-32.432-20.176-58.728 24.528-31.204 101.077-71.7 157.253-62.409 28.088 4.558 41.538 19.81 46.483 38.918 19.187-39.443 45.693-86.075 77.737-129.551 3.758-7.012 10.681-5.084 9.099 2.279-6.924 32.081-20.572 106.937-26.308 183.721 27.098-5.785 51.824-11.746 71.406-16.479 4.351-1.052 5.143 2.63 1.582 3.507-20.175 4.733-45.296 11.043-73.187 17.53-5.142 74.154-2.769 149.36 20.374 187.928 1.187 1.928-1.78 3.681-3.758 1.402-11.473-13.323-32.44-78.712-28.484-186.526Zm-78.724 8.941c4.944-15.427 13.846-37.866 25.911-63.636-.395-21.562-10.681-39.268-42.131-44.528-55.978-9.466-129.956 30.504-154.68 61.533-18.2 22.965-14.638 37.515 22.35 46.456 40.946 9.817 94.945 7.538 148.55.175Zm-.792 18.057c-1.186 8.94.396 11.394 4.747-.526 1.385-3.857 2.967-7.889 4.55-12.272l-6.528 1.052a79.915 79.915 0 0 0-2.769 11.746Zm6.923-18.933 3.363-.526c.593 0 1.187-.176 1.78-.176 6.132-16.128 12.264-34.535 14.044-51.54-9.494 21.037-16.615 39.269-20.967 52.417a6.132 6.132 0 0 1 1.78-.175Zm72.791-12.798c2.176-50.838 9.891-110.793 26.704-178.987-30.461 41.898-55.78 87.828-73.978 126.22 3.165 19.81-1.385 42.775-7.517 62.76 18.791-2.98 37.187-6.311 54.791-9.993Zm32.836-187.401-.198.175s.198 0 .198-.175Z"/></svg>

<svg width="790" height="659" viewBox="0 0 790 659" fill="none" xmlns="http://www.w3.org/2000/svg">
<path d="M237.268 358.414V119.318H228.153V375.016C231.013 369.675 234.051 364.141 237.268 358.414Z" fill="#4A90E2"/>
<path d="M237.268 385.475C233.987 391.753 230.947 397.756 228.153 403.414V436.253V469.092C231.221 468.559 234.259 468.018 237.268 467.469V426.472V385.475Z" fill="#4A90E2"/>
<path d="M266.599 587.422H260.055C254.011 587.422 248.215 585.015 243.942 580.731C239.669 576.446 237.268 570.635 237.268 564.576V482.105C234.229 482.741 231.19 483.363 228.153 483.971V563.434C228.153 569.796 225.632 575.897 221.145 580.396C216.658 584.895 210.573 587.422 204.227 587.422H131.344V601.13C165.015 596.295 198.987 593.875 233.001 593.888C245.017 593.893 256.642 594.204 267.854 594.757C267.423 592.374 267.005 589.928 266.599 587.422Z" fill="#4A90E2"/>
<path d="M283.457 595.704C301.578 596.997 318.505 598.894 334.077 601.13V587.422H282.381C282.716 590.239 283.07 593.011 283.457 595.704Z" fill="#4A90E2"/>
<path d="M699.254 85.6054H708.846V71.8976C704.708 72.4918 700.473 73.0597 696.14 73.6014C697.315 77.5209 698.353 81.5222 699.254 85.6054Z" fill="#4A90E2"/>
<path d="M612.037 181.068C608.993 181.957 605.954 182.835 602.922 183.704V282.478C605.996 280.38 609.035 278.175 612.037 275.862V181.068Z" fill="#4A90E2"/>
<path d="M602.922 302.379V553.71H612.037V296.899C609.025 298.82 605.986 300.646 602.922 302.379Z" fill="#4A90E2"/>
<path d="M549.878 76.8018C534.331 75.5416 519.705 73.8495 506.113 71.8976V85.6054H547.794C548.485 82.6284 549.179 79.6938 549.878 76.8018Z" fill="#4A90E2"/>
<path d="M607.189 79.1393C591.467 79.1329 576.421 78.6008 562.09 77.6865C561.46 80.2842 560.832 82.924 560.207 85.6057H580.135C586.179 85.6057 591.975 88.0127 596.248 92.2972C600.521 96.5817 602.922 102.393 602.922 108.452V168.708C605.959 167.888 608.997 167.06 612.037 166.223V109.594C612.037 103.232 614.558 97.1305 619.045 92.6318C623.532 88.1331 629.617 85.6057 635.963 85.6057H682.145C681.408 82.1667 680.568 78.7912 679.623 75.4793C655.556 77.9273 631.38 79.1488 607.189 79.1393Z" fill="#4A90E2"/>
<path d="M575.611 527.971C513.944 463.19 450.623 400 389.279 334.911C276.017 214.733 249.993 180.884 165.06 111.742C143.002 98.0344 90.1892 74.9807 57.3204 87.5076C53.5988 88.7347 50.898 82.9211 55.1246 81.5406C112.802 58.6947 179.607 63.5384 223.704 105.733C261.184 142.731 600.335 489.259 631.59 521.719C667.362 558.87 713.889 589.002 763.691 588.796C834.977 578.779 746.128 626.464 678.119 598.111C674.661 596.669 672.327 595.838 668.298 594.067C617.039 571.538 583.362 536.113 575.611 527.971Z" fill="#4A90E2"/>
<path d="M450.957 314.746C448.508 313.73 447.805 311.07 449.304 310.846C449.789 310.807 450.276 310.893 450.72 311.095C469.441 319.506 492.542 322.345 517.13 319.739C518.906 295.66 523.926 249.127 531.594 197.742C507.027 203.572 483.396 208.493 462.712 211.591C440.079 214.98 420.819 216.328 407.092 214.696C376.678 211.108 372.074 191.519 384.304 166.643C397 140.775 439.273 101.569 478.693 95.6657C484.249 94.7623 489.904 94.6394 495.494 95.3004C519.367 98.1781 531.759 125.819 537.387 161.54C542.78 129.853 549.199 97.859 556.433 69.2759C566.098 25.12 586.688 3.90817 609.471 0.496522C654.287 -6.21458 707.04 55.787 697.985 145.172C719.585 137.943 737.162 131.47 748.233 126.587C751.397 125.191 752.466 128.257 749.88 129.412C738.359 134.364 719.928 141.272 697.495 149.086C695.7 163.617 692.496 177.937 687.929 191.845C662.935 268.869 597.151 311.751 534.184 322.101C533.341 327.758 532.664 332.469 531.935 335.804C530.604 342.302 527.095 346.514 523.647 347.031C520.05 347.569 516.62 344.088 516.393 335.366C516.402 333.367 516.442 329.521 516.857 324.081C493.034 325.652 470.211 322.617 450.957 314.746ZM472.639 202.116C491.075 199.355 511.497 195.529 532.707 190.816C533.136 187.526 533.738 184.363 534.317 181.05C531.879 137.938 521.92 101.944 495.942 98.3064C490.15 97.5088 484.273 97.5608 478.497 98.4607C439.676 104.274 399.329 143.039 386.589 168.605C375.732 190.356 380.288 202.426 409.458 205.893C424.579 207.622 446.709 205.999 472.639 202.116ZM519.436 335.218C519.678 343.017 521.19 344.941 522.966 334.228C523.485 331.539 523.996 327.775 524.719 323.365C523.22 323.59 521.421 323.859 519.9 323.933C519.555 327.684 519.4 331.451 519.436 335.218ZM521.476 319.088L524.197 318.834L525.396 318.655C529.445 291.317 535.35 242.501 534.808 197.722C527.118 248.956 522.203 295.167 520.277 319.268L521.476 319.088ZM688.171 152.326C646.018 166.627 591.769 183.047 540.775 195.599C543.093 239.959 538.791 288.227 534.922 316.767C593.14 304.362 654.554 261.981 678.916 189.969C683.069 177.71 686.165 165.116 688.171 152.326ZM688.766 148.089C700.256 60.6436 651.842 -3.08338 609.574 3.24604C588.74 6.36593 569.236 26.6471 559.393 69.6006C551.49 100.895 544.581 136.804 538.909 171.759C539.587 177.342 539.988 183.119 540.412 189.048C591.69 177.375 646.673 161.767 688.766 148.089Z" fill="#032136"/>
<path d="M265.091 471.396C246.894 475.429 227.707 479.636 208.322 483.142C206.146 489.628 203.773 495.764 201.597 501.198C195.663 516.099 178.85 517.502 181.619 498.043C182.298 494.438 183.156 490.869 184.191 487.349C129.795 496.115 74.8064 499.796 33.0699 489.804C-5.50106 480.512 -7.6768 457.372 12.8943 431.076C37.4216 399.872 113.971 359.376 170.147 368.667C198.235 373.225 211.685 388.477 216.63 407.585C235.817 368.142 262.323 321.51 294.367 278.034C298.125 271.022 305.048 272.95 303.466 280.313C296.542 312.394 282.894 387.25 277.158 464.034C304.256 458.249 328.982 452.288 348.564 447.555C352.915 446.503 353.707 450.185 350.146 451.062C329.971 455.795 304.85 462.105 276.959 468.592C271.817 542.746 274.19 617.952 297.333 656.52C298.52 658.448 295.553 660.201 293.575 657.922C282.102 644.599 261.135 579.21 265.091 471.396ZM186.367 480.337C191.311 464.91 200.213 442.471 212.278 416.701C211.883 395.139 201.597 377.433 170.147 372.173C114.169 362.707 40.1911 402.677 15.4661 433.706C-2.73221 456.671 0.828609 471.221 37.8175 480.162C78.7626 489.979 132.762 487.7 186.367 480.337ZM185.575 498.394C184.389 507.334 185.971 509.788 190.322 497.868C191.707 494.011 193.289 489.979 194.872 485.596C192.696 485.947 190.52 486.298 188.344 486.648C187.126 490.488 186.201 494.414 185.575 498.394ZM192.498 479.461L195.861 478.935C196.454 478.935 197.048 478.759 197.641 478.759C203.773 462.631 209.905 444.224 211.685 427.219C202.191 448.256 195.07 466.488 190.718 479.636C191.3 479.491 191.899 479.432 192.498 479.461ZM265.289 466.663C267.465 415.825 275.18 355.87 291.993 287.676C261.532 329.574 236.213 375.504 218.015 413.896C221.18 433.706 216.63 456.671 210.498 476.656C229.289 473.676 247.685 470.345 265.289 466.663ZM298.125 279.262L297.927 279.437C297.927 279.437 298.125 279.437 298.125 279.262Z" fill="#032136"/>
</svg>
